_site/img/social/codepen.svg

<svg xmlns="http://www.w3.org/2000/svg" width="31.665" height="31.665" fill="#64cfe1" style="enable-background:new 0 0 31.665 31.665" xml:space="preserve"><path d="M16.878.415a2.501 2.501 0 0 0-2.809.034L1.485 9.214a2.5 2.5 0 0 0-1.071 2.052v9.444c0 .84.421 1.623 1.122 2.086l12.79 8.455a2.5 2.5 0 0 0 2.758 0l13.044-8.618a2.501 2.501 0 0 0 1.122-2.086v-9.279a2.5 2.5 0 0 0-1.121-2.085L16.878.415zm9.743 10.23L21.8 13.882l-4.521-3.288-.029-6.467 9.371 6.518zM13.979 4.133v6.329l-4.633 3.24-4.621-3.099 9.254-6.47zM3.458 13.722l2.991 2.004-2.991 2.093v-4.097zm10.6 13.493-9.331-6.258 4.661-3.258 4.67 3.133v6.383zm-1.772-11.541 3.021-2.113 3.519 2.313-3.119 2.095-3.421-2.295zm5.068 11.541V20.83l4.463-2.991 4.805 3.159-9.268 6.217zm10.6-9.288-3.168-2.082 3.168-2.125v4.207z"/></svg>

<?xml version="1.0" encoding="iso-8859-1"?>
<!-- Generator: Adobe Illustrator 16.0.0, SVG Export Plug-In . SVG Version: 6.00 Build 0)  -->
<!DOCTYPE svg PUBLIC "-//W3C//DTD SVG 1.1//EN" "http://www.w3.org/Graphics/SVG/1.1/DTD/svg11.dtd">
<svg version="1.1" id="Capa_1" xmlns="http://www.w3.org/2000/svg" xmlns:xlink="http://www.w3.org/1999/xlink" x="0px" y="0px"
	 width="31.665px" height="31.665px" viewBox="0 0 31.665 31.665" fill="#64cfe1" style="enable-background:new 0 0 31.665 31.665;"
	 xml:space="preserve">
<g>
	<path d="M16.878,0.415c-0.854-0.565-1.968-0.552-2.809,0.034L1.485,9.214c-0.671,0.468-1.071,1.233-1.071,2.052v9.444
		c0,0.84,0.421,1.623,1.122,2.086l12.79,8.455c0.836,0.553,1.922,0.553,2.758,0l13.044-8.618c0.7-0.463,1.122-1.246,1.122-2.086
		v-9.279c0-0.839-0.421-1.622-1.121-2.085L16.878,0.415z M26.621,10.645l-4.821,3.237l-4.521-3.288L17.25,4.127L26.621,10.645z
		 M13.979,4.133v6.329l-4.633,3.24l-4.621-3.099L13.979,4.133z M3.458,13.722l2.991,2.004l-2.991,2.093V13.722z M14.058,27.215
		l-9.331-6.258l4.661-3.258l4.67,3.133V27.215z M12.286,15.674l3.021-2.113l3.519,2.313l-3.119,2.095L12.286,15.674z M17.354,27.215
		V20.83l4.463-2.991l4.805,3.159L17.354,27.215z M27.954,17.927l-3.168-2.082l3.168-2.125V17.927z"/>
</g>
<g>
</g>
<g>
</g>
<g>
</g>
<g>
</g>
<g>
</g>
<g>
</g>
<g>
</g>
<g>
</g>
<g>
</g>
<g>
</g>
<g>
</g>
<g>
</g>
<g>
</g>
<g>
</g>
<g>
</g>
</svg>
